X:357
T:Man Who Built His House, The
R:jig
C:J\"orgen S\"alde, Sweden
Z:id:hn-jig-357
M:6/8
K:Edor
E^GA ~B3|dcA ~B3|efe dBB|cAA dBB|
E^GA ~B3|dcA ~B3|efe dcB|Ace ~a3:|
|:e=ga ba^g|~a3 aba|gef gfe|dBB B2c|
dAF DFA|GBB FAA|GBB AFD|GEE E3:|

